X:1
T:La valse des pastoriaux (Breton; \251 Jacky Molard)
C:W-50
M:3/4
L:1/8                        % length of shortest note
K:G
"1st time"D2y10|:"G"G2 GABc|d3 cBG|"Am"c2 cBAG|"D"A2 FADF|
"G"GFGABc|d2 dcBG|"Am"cBAGFG|[1"D"A4D2:|[2"D"A3 gfd||
|:"C"ede2"D"f2|"G"g3dBG|"Am"cBAGFG|"D"A3gfd|"C"edeg "D"(3fga|
"G(Em)"g3 dBG|"Am"cBAGFG|[1"D"A3gfd:|[2"D"(3ABA FADF||["final""G"G4||
%%textfont       Times-Roman 10.0
%%text The pickup D quarter-note pickup should not be played when repeating the tune.
%%textfont Times-Roman 18
